svg/arrow_left_circle_outline.svg

<svg xmlns="http://www.w3.org/2000/svg" viewBox="0 0 24 24"><path d="M18 11v2h-8l3.5 3.5-1.42 1.42L6.16 12l5.92-5.92L13.5 7.5 10 11zM2 12A10 10 0 0 1 12 2a10 10 0 0 1 10 10 10 10 0 0 1-10 10A10 10 0 0 1 2 12m2 0a8 8 0 0 0 8 8 8 8 0 0 0 8-8 8 8 0 0 0-8-8 8 8 0 0 0-8 8"/></svg>

<?xml version="1.0" encoding="UTF-8"?><!DOCTYPE svg PUBLIC "-//W3C//DTD SVG 1.1//EN" "http://www.w3.org/Graphics/SVG/1.1/DTD/svg11.dtd"><svg xmlns="http://www.w3.org/2000/svg" xmlns:xlink="http://www.w3.org/1999/xlink" version="1.1" id="mdi-arrow-left-circle-outline" width="24" height="24" viewBox="0 0 24 24"><path d="M18,11V13H10L13.5,16.5L12.08,17.92L6.16,12L12.08,6.08L13.5,7.5L10,11H18M2,12A10,10 0 0,1 12,2A10,10 0 0,1 22,12A10,10 0 0,1 12,22A10,10 0 0,1 2,12M4,12A8,8 0 0,0 12,20A8,8 0 0,0 20,12A8,8 0 0,0 12,4A8,8 0 0,0 4,12Z" /></svg>
